X:SSF 14-19b 19
T:
M:4/4
K:Dmix
P:A
{G2}| A3G F2G2 ABc2 B2G2 |1,3 A3G F2G2 Ad-d^c d4 :|2,4 A2d2 ^cdec d4 d2 :|
P:B
{e2}| f2a2 g2e2 d^cdB A4 |1,3 f2f2 g2e2 d4 d2 :|2,4 c3 B3 A2 G3 F3 :|

